X:1
T:Glory, Glory
T:Glory, Glory
T:William Howard Doane
T:Frances Jane (Fanny) Crosby, 1886
T:Public Domain Courtesy of the Cyber Hymnal™
C:William Howard Doane
Z:Public Domain
Z:Courtesy of the Cyber Hymnal™
%%score ( 1 2 ) ( 3 4 )
L:1/8
Q:1/4=110
M:4/4
K:Eb
V:1 treble 
V:2 treble 
V:3 bass 
V:4 bass 
V:1
 [EG]2 [EG]2 [DF]2 [CE]2 | [DB]4 [EB]4 | [Ec]4 [Ad]2 [Ad]2 | [Ge]4 [GB]4 | [Ac]3 [Ec] [Fc]2 [Fc]2 | %5
w: 1.~Glo- ry, glo- ry,|glo- ry,|Lord, our cre-|a- tor;|Num- bers with- out|
w: 2.~Glo- ry, glo- ry,|glo- ry,|Lord, our cre-|a- tor;|Thou a- lone hast|
w: 3.~Glo- ry, glo- ry,|glo- ry,|Thine be the|glo- ry,|Fa- ther, Son and|
 (c2 B2) [DA]2 [EG]2 | [DF]2 [FB]2 [Fd]3 [Ec] | [DB]6 z2 | [EB]2 [EB]2 [=Ec]2 [EG]2 [GB]4 [FA]4 | %9
w: num- * ber A-|round Thy throne pro-|claim;|Glo- ry, glo- ry, glo- ry,|
w: con- * quered, The|king- dom Thine shall|be;|Glo- ry, glo- ry, glo- ry,|
w: Spir- * it, e-|ter- nal Three in|One;|Glo- ry, glo- ry, glo- ry|
 [FA]3 [Dc] [EB]2 [FA]2 | [FA]4 [EG]4 | [Ge]4 [EB]2 [EG]2 | [EA]4 [Ec]4 | [EB]2 E2 [EG]3 [DF] | %14
w: ma- jes- ty, do-|min- ion,|Truth, love and|mer- cy|crown Thy ho- ly|
w: mul- ti- tudes a-|dor- ing,|Now with re-|joic- ing|lift their souls to|
w: as in the be-|gin- ning,|Now and for-|ev- er|let Thy will be|
 E6 z2 |] x8 |] %16
w: name.||
w: Thee.||
w: done.||
V:2
 x8 | x8 | x8 | x8 | x8 | E4 x4 | x8 | x8 | x16 | x8 | x8 | x8 | x8 | x2 E2 x4 | E6 x2 |] x8 |] %16
V:3
 [E,B,]2 [E,B,]2 [B,,A,]2 [C,G,]2 | (A,2 F,2) [E,G,]4 | A,2 [G,C]2 [F,C]2 [F,B,]2 | %3
 [E,B,]4 [E,E]4 | [A,E]3 [A,C] [A,D]2 [A,D]2 | (E2 B,2) [F,B,]2 [E,B,]2 | %6
 [F,B,]2 [F,D]2 [F,B,]3 [F,=A,] | [B,,B,]6 z2 | [E,G,]2 [_D,G,]2 [C,G,]2 [C,C]2 x8 | [F,C]4 C4 | %10
 [D,B,]3 [B,,B,] [C,B,]2 [D,B,]2 | [E,B,]4 [E,B,]4 | [E,B,]4 [E,G,]2 [_D,B,]2 | [C,A,]4 [A,,A,]4 | %14
 [B,,G,]2 [C,A,]2 [B,,B,]3 [B,,A,] |] [E,G,]6 z2 |] %16
V:4
 x8 | B,,4 x4 | A,2 x6 | x8 | x8 | G,4 x4 | x8 | x8 | x16 | x4 (F,2 E,2) | x8 | x8 | x8 | x8 | %14
 x8 |] x8 |] %16

